neru-dark-classic/22x22/devices/scanner.svg

<?xml version="1.0" encoding="UTF-8" standalone="no"?>
<svg
   xmlns:dc="http://purl.org/dc/elements/1.1/"
   xmlns:cc="http://creativecommons.org/ns#"
   xmlns:rdf="http://www.w3.org/1999/02/22-rdf-syntax-ns#"
   xmlns:svg="http://www.w3.org/2000/svg"
   xmlns="http://www.w3.org/2000/svg"
   xmlns:sodipodi="http://sodipodi.sourceforge.net/DTD/sodipodi-0.dtd"
   xmlns:inkscape="http://www.inkscape.org/namespaces/inkscape"
   width="22"
   height="22"
   viewBox="0 0 16 16"
   version="1.1"
   id="svg7"
   sodipodi:docname="scanner.svg"
   inkscape:version="0.92.1 r">
  <metadata
     id="metadata11">
    <rdf:RDF>
      <cc:Work
         rdf:about="">
        <dc:format>image/svg+xml</dc:format>
        <dc:type
           rdf:resource="http://purl.org/dc/dcmitype/StillImage" />
      </cc:Work>
    </rdf:RDF>
  </metadata>
  <sodipodi:namedview
     pagecolor="#ffffff"
     bordercolor="#666666"
     borderopacity="1"
     objecttolerance="10"
     gridtolerance="10"
     guidetolerance="10"
     inkscape:pageopacity="0"
     inkscape:pageshadow="2"
     inkscape:window-width="769"
     inkscape:window-height="480"
     id="namedview9"
     showgrid="false"
     inkscape:zoom="10.727273"
     inkscape:cx="11"
     inkscape:cy="11"
     inkscape:window-x="0"
     inkscape:window-y="0"
     inkscape:window-maximized="0"
     inkscape:current-layer="svg7" />
  <defs
     id="defs3">
    <style
       id="current-color-scheme"
       type="text/css">
   .ColorScheme-Text { color:#d3dae3; } .ColorScheme-Highlight { color:#5294e2; }
  </style>
  </defs>
  <path
     style="color:#d3dae3;fill:currentColor;stroke-width:0.83116883"
     class="ColorScheme-Text"
     d="m 3.8474026,2.1818183 c 0,0 -0.8303543,-0.00249 -0.8311689,0.8311688 l -0.00325,3.3214286 H 1.3506494 V 7.9967533 H 14.649351 V 6.3344157 h -1.662338 l 0.0032,-3.3214286 C 12.991075,2.1789923 12.159091,2.1818183 12.159091,2.1818183 Z m 0.8279221,1.6590909 h 6.6493503 l -0.0032,2.4935065 H 4.6720779 Z m -1.659091,4.9870126 v 4.1590912 c 0,0 0,0.831169 0.8311689,0.831169 h 8.3116884 c 0.831169,0 0.831169,-0.831169 0.831169,-0.831169 V 8.8279218 H 11.324675 V 12.152598 H 4.6753247 V 8.8279218 Z"
     id="path5"
     inkscape:connector-curvature="0" />
</svg>

<svg xmlns="http://www.w3.org/2000/svg" width="22" height="22" viewBox="0 0 16 16" version="1.1" id="svg7"><defs id="defs3"><style id="current-color-scheme" type="text/css"></style></defs><path d="M3.847 2.182s-.83-.003-.83.831l-.004 3.321H1.351v1.663h13.298V6.334h-1.662l.003-3.321c.001-.834-.83-.831-.83-.831zm.828 1.659h6.65l-.004 2.493H4.672zM3.016 8.828v4.159s0 .831.831.831h8.312c.831 0 .831-.831.831-.831v-4.16h-1.665v3.326h-6.65V8.828z" id="path5" color="#d3dae3" fill="currentColor" stroke-width=".831"/></svg>
